!!!!SEGMENT: T257_Ive-w25p31m56-63.krn
!!!COM: Ives, Charles
!!!OTL: IV: Allegro - Presto - Slow
!!!AGN: Instrumental
!!!AGN-sub: Keyboard
!!!CNT: American
!!!ODT: 1921
!!!OPR: Sonata No. 1 for Piano
!!!filename: T257_Ive-w25p31m56-63.krn
**kern	**kern	**dynam
*part1	*part1	*
*staff2	*staff1	*staff1/2
*I"Piano	*I"Piano	*
*I'Piano	*I'Piano	*
*clefF4	*clefG2	*
*k[]	*k[]	*
*C:	*C:	*
*M2/4	*M2/4	*
=1	=1	=1
!	!LO:TX:B:t=[Allegro]	!LO:DY:rj:ed=brack
*grp:A	*grp:A	*
4AnZ	(8A<L	p
.	16d'>	.
.	16f'>J)	.
4D#X	(16D#X<L	.
.	8e	.
.	16g'Jk 16b)	.
*^	*	*
=2	=2	=2	=2
*grp:A	*grp:A	*grp:A	*
!	!	!	!LO:DY:a
(<8AAL	4AA	[>2ff/	f
16DL	.	.	.
16B-XJJ)	.	.	.
16GGKL	4GG	.	.
(<8E^	.	.	.
16B-Jk)	.	.	.
=3	=3	=3	=3
*	*	*^	*
*grp:A	*grp:B	*grp:A	*grp:B	*
16AALL	8.AAL	2ff]	16ffKL	.
(16D	.	.	[>8.cc#XJ	.
16B-X')	.	.	.	.
[16GGJJ	[16GGJk	.	.	.
(<16GGKL]	4GG]	.	8cc#L]	.
8E	.	.	.	.
.	.	.	8dd#XJ	.
16B-Jk)	.	.	.	.
=4	=4	=4	=4	=4
!	!	!	!	!LO:DY:a
*	*	*grp:B	*grp:A	*
16AALL	8.AAL	(8b-XL	4b-	mf
16D	.	.	.	.
16B-X	.	8ddJ)	.	.
16GGJJ	[16GGJk	.	.	.
(8EL	16GG]	(8.ddL	4b-^	.
.	16ryy	.	.	.
8B-XJ)	8ryy	.	.	.
.	.	16ffJk)	.	.
*	*	*v	*v	*
!!linebreak:original
=5	=5	=5	=5
*grp:A	*grp:A	*grp:B	*
(8AAL	4AA	(>4b-X^> 4dd/	.
16DL	.	.	.
16B-XJJ)	.	.	.
16GGKL	4GG	8g' 8b-)	.
(<8E^	.	.	.
.	.	(>[8g^> 8b- 8dd/	.
16B-Jk)	.	.	.
=6	=6	=6	=6
*	*	*^	*
(<16AALL	4AA	8g 8b-XZ 8ff)'	8g]	.
16DJ	.	.	.	.
8B-XJ)	.	(8.ff^L	4dd	.
16GGKL	4GG	.	.	.
(<8E^	.	16aaJk)'	.	.
.	.	[8dd^> [8ff/	8ryy	.
16B-'Jk)	.	.	.	.
*	*	*v	*v	*
=7	=7	=7	=7
*gp:A	*grp:B	*grp:B	*
(16AALL	8.AAL	8dd] 8ff]/	.
16D	.	.	.
16B-X')	.	4b-X 4dd/	.
16GGJJ	[16GGJk	.	.
(<8EnL^	16GG]	.	.
.	16ryy	.	.
8B-XJ)'>	8ryy	8ryy	.
=8	=8	=8	=8
*grp:A	*grp:A	*grp:B	*
(8AAL	4AA	(4.ffn 4.ddd 4.fff#Xi	.
16DL	.	.	.
16B-X'JJ)>	.	.	.
16GGKL	4GG	.	.
(<8E^	.	.	.
.	.	[8gg#X [8eee [8gggn	.
16B-Jk)'	.	.	.
*v	*v	*	*
=	=	=
*-	*-	*-
!!!system-decoration: [({(s1,s2)})]
!!!RDF**kern: Z = editorial accidental, bracket
!!!RDF**kern: < = below
!!!RDF**kern: > = above
!!!RDF**kern: i = marked note, color="hotpink", text="extra("
!!!EED: Jason Lee
!!!EEV: 2022/03/09
!!!EED2: Gabriella Vici
!!!EEV2: 2022/03/16
!!!EED3: Bryan Jacob Bell
!!!EEV3: 2023/05/24
!!!EED4: Ève Poudrier
!!!EEV4: 2023/06/06
!!!EED5: Bryan Bell
!!!Suter_Work_ID: Ive-25
!!!Suter_Example_Number: 257
!!!Suter_Example_ID: Ive-25/31/56-63
!!!Premiere_Location: New York,United States
!!!Other_Tsigs: none
!!!Full_Unit_Duration: 4:05
!!!First_Publication_Year: 1954
!!!First_Public_Performance_Year: 1949
!!!Example_Total_Measures: 8
!!!Example_Timestamp_Duration: 10
!!!Example_Start_Tsig_Type: simple duple
!!!Example_Start_Tsig_Mean_Beat_Rate: 96
!!!Example_Start_Tsig_Beat_Rate: 96
!!!Example_Start_Tsig_Beat: quarter
!!!Example_Start_Tsig: 2/4
!!!Example_Start_Timestamp: 0:05
!!!Example_Start_Tempo_Expression: [Allegro]
!!!Example_Start_Notated_Beat_Rate: {96}
!!!Example_Start_Notated_Beat: {quarter}
!!!Example_Start_Measure: 56
!!!Example_Metadata_Validated: Y
!!!Example_End_Timestamp: 0:15
!!!Example_End_Measure: 63
!!!Example_Dataset: T
!!!Editorial_Comments: No notated tempo. Example Start Notated Beat and Example Start Notated Beat Rate {quarter=96} calculated from recording (https://ubc-nml3-naxosmusiclibrary-com.eu1.proxy.openathens.net/catalogue/item.asp?cid=MSVCD92037); tempo for audio synthesis {quarter=106} was calculated using a Digital Audio Workstation (DAW). Example Start Tempo Expression [Allegro] based on most recent notated tempo expression (SWFU, m. 52). Full Unit Duration calculated from Disc 2 Track 5 (0:00-1:18) to Disc 2 Track 6 (0:00-2:47) (https://ubc-nml3-naxosmusiclibrary-com.eu1.proxy.openathens.net/catalogue/item.asp?cid=DSL-90909). Example Start and End Time based on Disc 2 Track 2 \"IVb. Allegro-Presto-Slow\" (https://ubc-nml3-naxosmusiclibrary-com.eu1.proxy.openathens.net/catalogue/item.asp?cid=MSVCD92037).
!!!Death_Place: New York,United States
!!!Death_Date: 19-May-1954
!!!Changing_Tsig: no
!!!Birth_Place: Danbury,United States
!!!Birth_Date: 20-Oct-1874
!!!Audio_Example_Quarter_Note_Tempo:
!!!Audio_Example_Duration:
!!!EEV5: 2023/06/02
